X:1
T:Let Us Sing of His Love
T:Let Us Sing of His Love
T:William James Kirkpatrick
T:Francis Bottome, 1891
T:Public Domain Courtesy of the Cyber Hymnal™
T:Public Domain Courtesy of the Cyber Hymnal™
C:William James Kirkpatrick
Z:Public Domain
Z:Courtesy of the Cyber Hymnal™
%%score 1 ( 2 3 )
L:1/8
Q:1/4=100
M:4/4
K:G
V:1 treble 
V:2 bass 
V:3 bass 
V:1
 [DG]>[DA] | [GB]2 [GB]>[GB] [GB]2 [FA]>[FB] | [DG]6 [DF]>[DG] | [FA]2 [FA]>[FA] [FA]2 [DG]>[FA] | %4
w: 1.~Let us|sing of His love once a-|gain, Of the|love that can ne- ver de-|
w: 2.~There is|cleans- ing and heal- ing for|all Who have|washed in the life giv- ing|
w: 3.~Ev- en|now while we taste of His|love We are|filled with de- light at His|
w: 4.~Then we’ll|march in His name till we|come At His|bid- ding to en- ter our|
w: 5.~So with|ban- ner un- furled to the|breeze, Ou- r|mot- to shall ho- li- ness|
 [GB]6 [GB]>[Gc] | [Gd]2 [Gd]>[Gd] [Gd]2 [DA]>[=FB] | [Ec]6 [EB]>[EA] | %7
w: cay, Of the|blood of the Lamb new- ly|slain, Till we|
w: flood; There is|life ev- er- last- ing and|joy At the|
w: name; Bu- t|what will it be when a-|bove We shall|
w: rest, And the|Fa- ther shall wel- come us|home To our|
w: be, Till the|crown at His hand we shall|seize, And the|
 [DG]2 [DG]>[DG] [DG]2 [DB]>[DA] | [DG]6 ||"^Refrain" [GB]>[Ac] | [Bd]6 [Ac]>[GB] | %11
w: praise Him a- gain in that|day.|||
w: right hand of God, thro’ the|blood.|Let us|sing, let us|
w: join in the song of the|Lamb.|||
w: place in the realms of the|blest.|||
w: King in His glo- ry we|see.|||
 [Ac]6 [GB]>[FA] | [GB]2 [GB]>[GB] [GB]2 [Gd]>[GB] | [FA]6 [GB]>[Ac] | [Bd]6 [GB]>[=Fd] | %15
w: ||||
w: sing, Let us|sing of His grace full and|free; For He|saves, for He|
w: ||||
w: ||||
w: ||||
 [Ec]6 [EB]>[EA] | [DG]2 [DG]>[DG] [DG]2 [DB]>[DA] | [DG]6 |] %18
w: |||
w: saves; Je- sus|saves, sweet- ly saves, ev- en|me.|
w: |||
w: |||
w: |||
V:2
 [G,B,]>[G,C] | [G,D]2 [G,D]>[G,D] [G,D]2 [D,C]>[D,D] | [G,,B,]6 [D,A,]>[D,B,] | %3
w: ~ ~|~ ~ ~ ~ ~ ~|~ ~ ~|
 [D,C]2 [D,C]>[D,C] [D,C]2 [D,B,]>[D,D] | [G,D]6 [G,D]>[G,C] | %5
w: ~ ~ ~ ~ ~ ~|~ ~ ~|
 [G,B,]2 [G,B,]>[G,B,] [G,B,]2 [F,A,]>G, | [C,G,]6 [C,G,]>[C,C] | %7
w: ~ ~ ~ ~ ~ ~|~ ~ ~|
 [D,B,]2 [D,B,]>[D,B,] [D,B,]2 [D,D]>[D,C] | [G,,G,B,]6 || z2 | z2 [G,D]>[G,D] [G,D]2 z2 | %11
w: ~ ~ ~ ~ ~ ~|~||Let us sing,|
 z2 [D,D]>[D,D] [D,D]2 [D,D]>[D,D] | [G,D]2 [G,D]>[G,D] [G,D]2 [G,B,]>[G,D] | [D,D]6 z2 | %14
w: let us sing, ~ ~|~ ~ ~ ~ ~ ~|~|
 z2 [G,D]>[G,D] [G,D]2 z2 | z2 [C,G,]>[C,G,] [C,G,]2 [C,G,]>[C,C] | %16
w: For He saves,|for He saves, * *|
 [D,B,]2 [D,B,]>[D,B,] [D,B,]2 [D,D]>[D,C] | [G,,G,B,]6 |] %18
w: ||
V:3
 x2 | x8 | x8 | x8 | x8 | x15/2 G,/ | x8 | x8 | x6 || x2 | x8 | x8 | x8 | x8 | x8 | x8 | x8 | x6 |] %18

